X:1
T:Title
%%score { ( 1 3 ) | 2 }
L:1/8
Q:1/4=100
M:4/4
K:Ab
V:1 treble nm="Grand Piano"
V:3 treble 
V:2 bass 
V:1
 [CE]>[DF] [CE]>[_C=D] [=CE]2 [Ec]2 | c>B E>c B4 | E>F E>=D E2 B2 | [DB]>[CA] [A,C]>[DF] [CE]4 | %4
w: E.~S.~Lorenz * * * * *||||
 [DF]>[EG] [FA]>[FB] [=Ec]2 [Ec]2 | [FA]>[GB] [Ac]>[A=d] [Ge]2 [Ge]2 | %6
w: ||
 f>e c>A [Fd]>[DF] [FA]>[FB] | [Ec]2 [DB]2 [CA]4 | [=Ec]2 [EG]2 [Ec]2 [CEB]2 | %9
w: |||
 [CFA]>[DFB] [C=EA]>[B,EG] [A,F]4 | [=DB]2 [DF]2 [DB]2 [DA]2 | [EG]>[EA] [=DG]>[DF] z2 _D2 | %12
w: |||
 [CE]>[DF] [CE]>[_C=D] [=CE]>[CA] [Ec]2 | [C_Ge]>[EGc] [EGB]>[EGA] [DFd]4 | %14
w: ||
 [Ec]2 [CE]2 [Fd][Fd]cA | B4 [CA]2 z2 |] %16
w: ||
V:2
 [A,,A,]>[A,,A,] [A,,A,]>[A,,A,] [A,,A,]2 [A,,A,]2 | [E,G,E]>[E,G,D] [E,G,D]>[E,G,E] [E,G,D]4 | %2
 [E,G,D]>[E,G,D] [E,G,D]>[E,G,B,] [E,G,B,]2 [E,G,D]2 | [A,,E,]>[A,,E,] [A,,E,]>[A,,A,] [A,,A,]4 | %4
 [D,A,]>[D,A,] [D,A,]>[D,F,] [C,G,]2 [C,C]2 | [F,C]>[F,B,] [F,A,]>[F,B,] [E,B,]2 [E,D]2 | %6
 [A,CA]>[A,CA] [A,EA]>[A,C_G][K:bass] [D,A,]>[D,A,] [D,A,]>[D,A,] | [E,A,]2 [E,G,]2 [A,,A,]4 | %8
 [C,G,]2 [C,C]2 [C,G,]2 C,2 | F,>F, C,>C, F,4 | [B,,F,]2 [B,,B,]2 [B,,F,]2 [B,,B,]2 | %11
 [E,B,]>[E,C] [B,,B,]>[B,,B,] [E,G,]4 | [A,,A,]>[A,,A,] [A,,A,]>[A,,A,] [A,,A,]>[A,,A,] [A,,A,]2 | %13
 A,,>A,, B,,>C, B,,4 | [E,A,]2 [E,A,]2 [E,A,][E,A,][E,A,E][E,A,C] | [E,G,D]4 [A,,A,]2 z2 |] %16
V:3
 x8 | x8 | x8 | x8 | x8 | x8 | x8 | x8 | x8 | x8 | x8 | z4 E4 | x8 | x8 | x8 | x8 |] %16

